packages/icons/svg/Social_SocialNetwork_Facebook_24px.svg

<svg xmlns="http://www.w3.org/2000/svg" viewBox="0 0 24 24"><path d="M20 5v13.32A1.68 1.68 0 0118.32 20H15v-6.2h2.07l.32-2.41H15V9.84a1.29 1.29 0 01.29-.84 1.19 1.19 0 01.95-.29h1.27v-2.2a14.59 14.59 0 00-1.85-.09 3.08 3.08 0 00-2.27.83 3.14 3.14 0 00-.85 2.35v1.79h-2.08v2.41h2.08V20H5.68A1.68 1.68 0 014 18.32V5a1 1 0 011-1h14a1 1 0 011 1z"/></svg>

<svg xmlns="http://www.w3.org/2000/svg" viewBox="0 0 24 24"><defs></defs><g id="Icon"><path  d="M20,5V18.32A1.68,1.68,0,0,1,18.32,20H15V13.8h2.07l.32-2.41H15V9.84A1.29,1.29,0,0,1,15.29,9a1.19,1.19,0,0,1,.95-.29h1.27V6.51a14.59,14.59,0,0,0-1.85-.09,3.08,3.08,0,0,0-2.27.83,3.14,3.14,0,0,0-.85,2.35v1.79H10.46V13.8h2.08V20H5.68A1.68,1.68,0,0,1,4,18.32V5A1,1,0,0,1,5,4H19A1,1,0,0,1,20,5Z"/></g></svg>
